X: 429
P: Longways for as many as will
M: 6/8
L: 1/8
K: G
V: 1
|:\
|:\
 DFA   dcB  | c3  B3  | edc BAG | FGA D2B/c/ |\
(dB)g (dB)g | BcB ABc | BAG DGF | G3- G3 :|
V: 2 clef=bass middle=d
|:\
g3 G3  | A2B ^c3 | d2g a2A | d2c BAG :|
|:\
d3 f2g | agf g2G | c3  G3 | d3  c3  |\

